src/status/22/user-offline-panel.svg

<svg viewBox="0 0 20 22" xmlns="http://www.w3.org/2000/svg">
 <path d="m9.5 4c-4.14 0-7.5 3.36-7.5 7.5s3.36 7.5 7.5 7.5c1.9648 0 3.7561-0.76222 5.0938-2h5.406l-3.344-3.344c0.208-0.687 0.344-1.401 0.344-2.156 0-4.14-3.36-7.5-7.5-7.5zm-2.1875 4 2.1875 2.25 2.25-2.2188 1.25 1.2813-2.25 2.1875 2.219 2.25-1.281 1.25-2.188-2.25-2.25 2.219-1.25-1.281 2.25-2.188-2.2188-2.25 1.2813-1.25z" fill="#2e3440" fill-rule="evenodd"/>
</svg>

<svg xmlns="http://www.w3.org/2000/svg" viewBox="0 0 20 22">
 <path d="M 9.5,4 C 5.36,4 2,7.36 2,11.5 2,15.64 5.36,19 9.5,19 c 1.9648,0 3.7561,-0.76222 5.0938,-2 h 5.406 l -3.344,-3.344 c 0.208,-0.687 0.344,-1.401 0.344,-2.156 0,-4.14 -3.36,-7.5 -7.5,-7.5 z M 7.3125,8 9.5,10.25 11.75,8.0312 13,9.3125 10.75,11.5 12.969,13.75 11.688,15 9.5,12.75 7.25,14.969 6,13.688 8.25,11.5 6.0312,9.25 7.3125,8 z" style="fill:#2e3440;fill-opacity:1;fill-rule:evenodd"/>
</svg>
